X:60
T:The Chorley Maul
C:Dave Roberts
Z:Anahata (anahata@treewind.co.uk)
M:6/8
K:G
FE | "D"DFD ADc | "C"edc "G"BAG | "D"DFD ADc |"D"BcA "G"GFE |
"D"DFD ADc | "C"edc "G"BAG | "C"c>cc "Am"edc | "D"BcA "G"G :|
|: AB | "C"c>cc edc | "G"BdB GFG | "D"AFD DEF | "Em"G2 "D"A2 "G"B2 |
"C"c>cc edc | "G"BdB GFG | "D"AFD DEF | "G"G3 G :|

